public/icons/tech-stack/mongodb.svg

<svg width="80" height="97" viewBox="0 0 80 97" fill="none" xmlns="http://www.w3.org/2000/svg">
<g clip-path="url(#clip0_34_407)">
<path d="M42.015 90.5L39.5743 89.6908C39.5743 89.6908 39.8993 77.3408 35.4305 76.473C32.5055 73.067 35.8628 -68.9352 46.5553 75.9888C44.5265 77.0178 42.9742 78.7914 42.223 80.9385C41.8204 84.1097 41.7507 87.3143 42.015 90.5Z" fill="url(#paint0_linear_34_407)"/>
<path d="M43.3345 78.5693C49.8331 73.6773 54.8099 67.0414 57.6865 59.4329C60.563 51.8244 61.2212 43.5558 59.5845 35.5881C54.807 14.5118 43.4938 7.5828 42.275 4.9373C41.2235 3.28998 40.3259 1.54929 39.5938 -0.262695L40.494 58.4616C40.494 58.4616 38.6285 76.4081 43.3345 78.5693Z" fill="url(#paint1_linear_34_407)"/>
<path d="M38.3328 79.3493C38.3328 79.3493 18.4395 65.8 19.59 41.8312C19.6973 34.6053 21.3541 27.4866 24.4485 20.9559C27.5428 14.4252 32.0027 8.63461 37.5268 3.97525C38.1723 3.4268 38.6852 2.7392 39.0269 1.96409C39.3685 1.18898 39.5301 0.346521 39.4995 -0.5C40.7377 2.165 40.5362 39.2898 40.6662 43.6318C41.17 60.522 39.727 76.161 38.3328 79.3493Z" fill="url(#paint2_linear_34_407)"/>
</g>
<defs>
<linearGradient id="paint0_linear_34_407" x1="25.6078" y1="45.82" x2="53.6608" y2="55.3397" gradientUnits="userSpaceOnUse">
<stop offset="0.231" stop-color="#999875"/>
<stop offset="0.563" stop-color="#9B9977"/>
<stop offset="0.683" stop-color="#A09F7E"/>
<stop offset="0.768" stop-color="#A9A889"/>
<stop offset="0.837" stop-color="#B7B69A"/>
<stop offset="0.896" stop-color="#C9C7B0"/>
<stop offset="0.948" stop-color="#DEDDCB"/>
<stop offset="0.994" stop-color="#F8F6EB"/>
<stop offset="1" stop-color="#FBF9EF"/>
</linearGradient>
<linearGradient id="paint1_linear_34_407" x1="35.8951" y1="-0.682316" x2="48.2972" y2="76.7617" gradientUnits="userSpaceOnUse">
<stop stop-color="#48A547"/>
<stop offset="1" stop-color="#3F9143"/>
</linearGradient>
<linearGradient id="paint2_linear_34_407" x1="17.8788" y1="44.2038" x2="51.1608" y2="33.0577" gradientUnits="userSpaceOnUse">
<stop stop-color="#41A247"/>
<stop offset="0.352" stop-color="#4BA74B"/>
<stop offset="0.956" stop-color="#67B554"/>
<stop offset="1" stop-color="#69B655"/>
</linearGradient>
<clipPath id="clip0_34_407">
<rect width="80" height="97" fill="white"/>
</clipPath>
</defs>
</svg>

<svg xmlns="http://www.w3.org/2000/svg" width="80" height="97" fill="none" xmlns:v="https://vecta.io/nano"><g clip-path="url(#D)"><path d="M42.015 90.5l-2.441-.809s.325-12.35-4.144-13.218c-2.925-3.406.432-145.408 11.125-.484-2.029 1.029-3.581 2.803-4.332 4.95a45.83 45.83 0 0 0-.208 9.561z" fill="url(#A)"/><path d="M43.335 78.569c6.499-4.892 11.475-11.528 14.352-19.136s3.535-15.877 1.898-23.845C54.807 14.512 43.494 7.583 42.275 4.937a31.82 31.82 0 0 1-2.681-5.2l.9 58.724s-1.865 17.947 2.84 20.108z" fill="url(#B)"/><path d="M38.333 79.349S18.44 65.8 19.59 41.831c.107-7.226 1.764-14.345 4.858-20.875S32.003 8.635 37.527 3.975c.645-.548 1.158-1.236 1.5-2.011A5.61 5.61 0 0 0 39.5-.5c1.238 2.665 1.037 39.79 1.167 44.132.504 16.89-.939 32.529-2.333 35.718z" fill="url(#C)"/></g><defs><linearGradient id="A" x1="25.608" y1="45.82" x2="53.661" y2="55.34" gradientUnits="userSpaceOnUse"><stop offset=".231" stop-color="#999875"/><stop offset=".563" stop-color="#9b9977"/><stop offset=".683" stop-color="#a09f7e"/><stop offset=".768" stop-color="#a9a889"/><stop offset=".837" stop-color="#b7b69a"/><stop offset=".896" stop-color="#c9c7b0"/><stop offset=".948" stop-color="#deddcb"/><stop offset=".994" stop-color="#f8f6eb"/><stop offset="1" stop-color="#fbf9ef"/></linearGradient><linearGradient id="B" x1="35.895" y1="-.682" x2="48.297" y2="76.762" gradientUnits="userSpaceOnUse"><stop stop-color="#48a547"/><stop offset="1" stop-color="#3f9143"/></linearGradient><linearGradient id="C" x1="17.879" y1="44.204" x2="51.161" y2="33.058" gradientUnits="userSpaceOnUse"><stop stop-color="#41a247"/><stop offset=".352" stop-color="#4ba74b"/><stop offset=".956" stop-color="#67b554"/><stop offset="1" stop-color="#69b655"/></linearGradient><clipPath id="D"><path fill="#fff" d="M0 0h80v97H0z"/></clipPath></defs></svg>
